X:11133
%5339
T:Flogging
S:Trad, arr. Paddy O'Brien 
R:reel
E:9
I:speed 350
E:9
M:C|
K:Cmaj
EC~C2 ECGC|EC~C2 EGcG|EC~C2 EGFE|DCB,C DEFD|\
EC~C2 ECGC|EC~C2 EGcG|EC~C2 EGFE|DCB,C DEFD||\
cBcG ECEG|~c2Ac BcdB|cBcG EGFE|DCB,C DEFD|\
cBcG ECEG|~c2 Ac Bcdc|ecdB cAGE|DCB,C DEFD||\
EGcG EGcG|EGcG EC C2|DF_BF DFBF|DF_BF DB,~B,2|\
EGcG EGcG|^FGAB cBcd|ecdB cAGE|DCB,C DEFD||**
\vfill\eject


